!!! OTL: Berkowitz304
!!! Chapter: 1
!!! Section: III
!!! Page: 73
!!! Mode: 
!!! Encoder: DJB
**kern
*staff1
*I"Piano
=1-
*clefG2
*k[b-e-a-]
*E-:
*M4/4
8b-\L
8an\
8cc\
8b-\J
8a-/L
8g/
8f/
8e-/J
=2
4d/
4f/
2b-\
=3
8a-/L
8g/
8b-/
8a-/J
8g/L
8f/
8a-/
8g/J
=4
2f/
2e-/
=5
8ee-\L
8dd\
8cc\
8bn\J
8cc/L
8b-/
8a-/
8g/J
=6
4f/
4a-/
2cc\
=7
4d/
4f/
4b-\
4d/
=8
!!linebreak:original
2f/
2e-/
==
*-
